Newaita-dark/mimetypes/22/payment-card-jcb.svg

<svg height="22pt" viewBox="0 0 22 22" width="22pt" xmlns="http://www.w3.org/2000/svg" xmlns:xlink="http://www.w3.org/1999/xlink"><linearGradient id="a" gradientUnits="userSpaceOnUse" x1="10.915104" x2="10.915104" y1="17.90893642218" y2="4.26505528519"><stop offset="0" stop-color="#42a5f5"/><stop offset="1" stop-color="#64b5f6"/></linearGradient><linearGradient id="b" gradientUnits="userSpaceOnUse" x1="11.3699116" x2="11.3699116" y1="17.90894815" y2="18.81854134324"><stop offset="0" stop-opacity=".27451"/><stop offset="1" stop-opacity="0"/></linearGradient><linearGradient id="c"><stop offset="0" stop-opacity=".313725"/><stop offset=".222222" stop-opacity=".27451"/><stop offset="1" stop-opacity="0"/></linearGradient><radialGradient id="d" cx="450.90894" cy="189.57936" gradientTransform="matrix(.00000012 -.0537161 -.0966889 -.00000007 36.749414 42.357404)" gradientUnits="userSpaceOnUse" r="21.166656" xlink:href="#c"/><radialGradient id="e" cx="450.90894" cy="189.57936" gradientTransform="matrix(-.00000012 .0537161 .0966889 .00000007 -14.919205 -6.53953)" gradientUnits="userSpaceOnUse" r="21.166656" xlink:href="#c"/><radialGradient id="f" cx="450.90894" cy="189.57936" gradientTransform="matrix(-.00000012 -.0537161 .0966889 -.00000007 -14.919205 42.357404)" gradientUnits="userSpaceOnUse" r="21.166656" xlink:href="#c"/><radialGradient id="g" cx="450.90894" cy="189.57936" gradientTransform="matrix(.00000012 .0537161 -.0966889 .00000007 36.749413 -6.53953)" gradientUnits="userSpaceOnUse" r="21.166656" xlink:href="#c"/><linearGradient id="h" gradientUnits="userSpaceOnUse" x1="10.9151166" x2="10.9151166" y1="21.09252153649" y2="1.08147429324"><stop offset="0" stop-color="#bdbdbd"/><stop offset="1" stop-color="#e0e0e0"/></linearGradient><linearGradient id="i" gradientUnits="userSpaceOnUse" x1="15.008285325" x2="15.008285325" y1="17.908945575" y2="4.265049825"><stop offset="0" stop-color="#66bb6a"/><stop offset="1" stop-color="#81c784"/></linearGradient><linearGradient id="j" gradientUnits="userSpaceOnUse" x1="10.9151166" x2="10.9151166" y1="17.908945575" y2="4.265049825"><stop offset="0" stop-color="#f44336"/><stop offset="1" stop-color="#ef5350"/></linearGradient><linearGradient id="k" gradientUnits="userSpaceOnUse" x1="7.04934628074" x2="6.821947875" y1="17.908945575" y2="4.265049825"><stop offset="0" stop-color="#5c6bc0"/><stop offset="1" stop-color="#7986cb"/></linearGradient><path d="m10.914062 7.449219c-2.015624 0-3.636718 1.621093-3.636718 3.636719 0 2.015624 1.621094 3.640624 3.636718 3.640624 2.015626 0 3.640626-1.625 3.640626-3.640624 0-2.015626-1.625-3.636719-3.640626-3.636719zm-1.136718 1.15625v4.964843c-.941406-.429687-1.589844-1.378906-1.589844-2.484374 0-1.105469.648438-2.050782 1.589844-2.480469zm2.273437 0c.941407.429687 1.59375 1.375 1.59375 2.480469 0 1.105468-.652343 2.054687-1.59375 2.484374zm0 0" fill="url(#a)"/><path d="m3.183594 17.910156h15.464844v.910156h-15.464844zm0 0" fill="url(#b)"/><path d="m18.648438 17.910156h1.816406v-.910156h-1.816406zm0 0" fill="url(#d)"/><path d="m3.183594 17.910156h-1.820313v.910156h1.820313zm0 0" fill="url(#e)"/><path d="m3.183594 17.910156h-1.820313v-.910156h1.820313zm0 0" fill="url(#f)"/><path d="m18.648438 17.910156h1.816406v.910156h-1.816406zm0 0" fill="url(#g)"/><path d="m2.730469 4.265625h16.371093c.503907 0 .910157.40625.910157.910156v11.824219c0 .5-.40625.910156-.910157.910156h-16.371093c-.503907 0-.910157-.410156-.910157-.910156v-11.824219c0-.503906.40625-.910156.910157-.910156zm0 0" fill="url(#h)"/><path d="m2.730469 4.265625c-.503907 0-.910157.40625-.910157.910156v.226563c0-.503906.40625-.910156.910157-.910156h16.371093c.503907 0 .910157.40625.910157.910156v-.226563c0-.503906-.40625-.910156-.910157-.910156zm0 0" fill="#fff" fill-opacity=".588235"/><path d="m1.820312 16.78125v.21875c0 .503906.40625.910156.910157.910156h16.371093c.503907 0 .910157-.40625.910157-.910156v-.21875c0 .503906-.40625.90625-.910157.90625h-16.371093c-.503907 0-.910157-.402344-.910157-.90625zm0 0" fill-opacity=".235294"/><path d="m63.539387-115.736752h380.96362c11.726153 0 21.179795 9.453643 21.179795 21.179796v275.155542c0 11.635252-9.453642 21.179795-21.179795 21.179795h-380.96362c-11.726153 0-21.179796-9.544543-21.179796-21.179795v-275.155542c0-11.726153 9.453643-21.179796 21.179796-21.179796zm0 0" fill="none" stroke="#212121" stroke-linecap="round" stroke-linejoin="round" stroke-width="3" transform="matrix(.0429729 0 0 .0429729 0 9.239163)"/><path d="m14.667969 7.222656c-.628907 0-1.136719.503906-1.136719 1.136719v6.367187h2.273438c.628906 0 1.136718-.507812 1.136718-1.136718v-6.367188zm0 0" fill="url(#i)"/><path d="m10.347656 7.222656c-.632812 0-1.136718.503906-1.136718 1.136719v6.367187h2.273437c.628906 0 1.136719-.507812 1.136719-1.136718v-6.367188zm0 0" fill="url(#j)"/><path d="m6.027344 7.222656c-.632813 0-1.136719.503906-1.136719 1.136719v6.367187h2.273437c.628907 0 1.136719-.507812 1.136719-1.136718v-6.367188zm0 0" fill="url(#k)"/><g fill="none" stroke="#212121" stroke-linecap="round" stroke-linejoin="round" stroke-width="3" transform="matrix(.0429729 0 0 .0429729 0 9.239163)"><path d="m341.331041-46.925141c-14.634966 0-26.45202 11.726153-26.45202 26.452019v148.167669h52.904039c14.634966 0 26.45202-11.817053 26.45202-26.452019v-148.167669zm0 0"/><path d="m240.795187-46.925141c-14.725866 0-26.452019 11.726153-26.452019 26.452019v148.167669h52.904038c14.634967 0 26.45202-11.817053 26.45202-26.452019v-148.167669zm0 0"/><path d="m140.259333-46.925141c-14.725866 0-26.452019 11.726153-26.452019 26.452019v148.167669h52.904039c14.634966 0 26.452019-11.817053 26.452019-26.452019v-148.167669zm0 0"/></g></svg>

<?xml version="1.0" encoding="UTF-8"?>
<svg xmlns="http://www.w3.org/2000/svg" xmlns:xlink="http://www.w3.org/1999/xlink" width="22pt" height="22pt" viewBox="0 0 22 22" version="1.1">
<defs>
<linearGradient id="linear0" gradientUnits="userSpaceOnUse" x1="960" y1="1575.1182" x2="960" y2="375.1181" gradientTransform="matrix(0.0113699,0,0,0.0113699,0,0)">
<stop offset="0" style="stop-color:rgb(25.882353%,64.705882%,96.078431%);stop-opacity:1;"/>
<stop offset="1" style="stop-color:rgb(39.215686%,70.980392%,96.470588%);stop-opacity:1;"/>
</linearGradient>
<linearGradient id="linear1" gradientUnits="userSpaceOnUse" x1="254" y1="233.5" x2="254" y2="254.66667" gradientTransform="matrix(0.0429729,0,0,0.0429729,0.454795,7.874776)">
<stop offset="0" style="stop-color:rgb(0%,0%,0%);stop-opacity:0.27451;"/>
<stop offset="1" style="stop-color:rgb(0%,0%,0%);stop-opacity:0;"/>
</linearGradient>
<radialGradient id="radial0" gradientUnits="userSpaceOnUse" cx="450.90894" cy="189.57936" fx="450.90894" fy="189.57936" r="21.166656" gradientTransform="matrix(0.000000119742,-0.0537161,-0.0966889,-0.0000000698078,36.749414,42.357404)">
<stop offset="0" style="stop-color:rgb(0%,0%,0%);stop-opacity:0.313725;"/>
<stop offset="0.222222" style="stop-color:rgb(0%,0%,0%);stop-opacity:0.27451;"/>
<stop offset="1" style="stop-color:rgb(0%,0%,0%);stop-opacity:0;"/>
</radialGradient>
<radialGradient id="radial1" gradientUnits="userSpaceOnUse" cx="450.90894" cy="189.57936" fx="450.90894" fy="189.57936" r="21.166656" gradientTransform="matrix(-0.000000119742,0.0537161,0.0966889,0.0000000698078,-14.919205,-6.53953)">
<stop offset="0" style="stop-color:rgb(0%,0%,0%);stop-opacity:0.313725;"/>
<stop offset="0.222222" style="stop-color:rgb(0%,0%,0%);stop-opacity:0.27451;"/>
<stop offset="1" style="stop-color:rgb(0%,0%,0%);stop-opacity:0;"/>
</radialGradient>
<radialGradient id="radial2" gradientUnits="userSpaceOnUse" cx="450.90894" cy="189.57936" fx="450.90894" fy="189.57936" r="21.166656" gradientTransform="matrix(-0.000000119742,-0.0537161,0.0966889,-0.0000000698078,-14.919205,42.357404)">
<stop offset="0" style="stop-color:rgb(0%,0%,0%);stop-opacity:0.313725;"/>
<stop offset="0.222222" style="stop-color:rgb(0%,0%,0%);stop-opacity:0.27451;"/>
<stop offset="1" style="stop-color:rgb(0%,0%,0%);stop-opacity:0;"/>
</radialGradient>
<radialGradient id="radial3" gradientUnits="userSpaceOnUse" cx="450.90894" cy="189.57936" fx="450.90894" fy="189.57936" r="21.166656" gradientTransform="matrix(0.000000119742,0.0537161,-0.0966889,0.0000000698078,36.749413,-6.53953)">
<stop offset="0" style="stop-color:rgb(0%,0%,0%);stop-opacity:0.313725;"/>
<stop offset="0.222222" style="stop-color:rgb(0%,0%,0%);stop-opacity:0.27451;"/>
<stop offset="1" style="stop-color:rgb(0%,0%,0%);stop-opacity:0;"/>
</radialGradient>
<linearGradient id="linear2" gradientUnits="userSpaceOnUse" x1="254" y1="275.83334" x2="254" y2="-189.83333" gradientTransform="matrix(0.0429729,0,0,0.0429729,0,9.239163)">
<stop offset="0" style="stop-color:rgb(74.117647%,74.117647%,74.117647%);stop-opacity:1;"/>
<stop offset="1" style="stop-color:rgb(87.843137%,87.843137%,87.843137%);stop-opacity:1;"/>
</linearGradient>
<linearGradient id="linear3" gradientUnits="userSpaceOnUse" x1="349.25" y1="201.75" x2="349.25" y2="-115.75" gradientTransform="matrix(0.0429729,0,0,0.0429729,0,9.239163)">
<stop offset="0" style="stop-color:rgb(40%,73.333333%,41.568627%);stop-opacity:1;"/>
<stop offset="1" style="stop-color:rgb(50.588235%,78.039216%,51.764706%);stop-opacity:1;"/>
</linearGradient>
<linearGradient id="linear4" gradientUnits="userSpaceOnUse" x1="254" y1="201.75" x2="254" y2="-115.75" gradientTransform="matrix(0.0429729,0,0,0.0429729,0,9.239163)">
<stop offset="0" style="stop-color:rgb(95.686275%,26.27451%,21.176471%);stop-opacity:1;"/>
<stop offset="1" style="stop-color:rgb(93.72549%,32.54902%,31.372549%);stop-opacity:1;"/>
</linearGradient>
<linearGradient id="linear5" gradientUnits="userSpaceOnUse" x1="164.04167" y1="201.75" x2="158.75" y2="-115.75" gradientTransform="matrix(0.0429729,0,0,0.0429729,0,9.239163)">
<stop offset="0" style="stop-color:rgb(36.078431%,41.960784%,75.294118%);stop-opacity:1;"/>
<stop offset="1" style="stop-color:rgb(47.45098%,52.54902%,79.607843%);stop-opacity:1;"/>
</linearGradient>
</defs>
<g id="surface1">
<path style=" stroke:none;fill-rule:nonzero;fill:url(#linear0);" d="M 10.914062 7.449219 C 8.898438 7.449219 7.277344 9.070312 7.277344 11.085938 C 7.277344 13.101562 8.898438 14.726562 10.914062 14.726562 C 12.929688 14.726562 14.554688 13.101562 14.554688 11.085938 C 14.554688 9.070312 12.929688 7.449219 10.914062 7.449219 Z M 9.777344 8.605469 L 9.777344 13.570312 C 8.835938 13.140625 8.1875 12.191406 8.1875 11.085938 C 8.1875 9.980469 8.835938 9.035156 9.777344 8.605469 Z M 12.050781 8.605469 C 12.992188 9.035156 13.644531 9.980469 13.644531 11.085938 C 13.644531 12.191406 12.992188 13.140625 12.050781 13.570312 Z M 12.050781 8.605469 "/>
<path style=" stroke:none;fill-rule:nonzero;fill:url(#linear1);" d="M 3.183594 17.910156 L 18.648438 17.910156 L 18.648438 18.820312 L 3.183594 18.820312 Z M 3.183594 17.910156 "/>
<path style=" stroke:none;fill-rule:nonzero;fill:url(#radial0);" d="M 18.648438 17.910156 L 20.464844 17.910156 L 20.464844 17 L 18.648438 17 Z M 18.648438 17.910156 "/>
<path style=" stroke:none;fill-rule:nonzero;fill:url(#radial1);" d="M 3.183594 17.910156 L 1.363281 17.910156 L 1.363281 18.820312 L 3.183594 18.820312 Z M 3.183594 17.910156 "/>
<path style=" stroke:none;fill-rule:nonzero;fill:url(#radial2);" d="M 3.183594 17.910156 L 1.363281 17.910156 L 1.363281 17 L 3.183594 17 Z M 3.183594 17.910156 "/>
<path style=" stroke:none;fill-rule:nonzero;fill:url(#radial3);" d="M 18.648438 17.910156 L 20.464844 17.910156 L 20.464844 18.820312 L 18.648438 18.820312 Z M 18.648438 17.910156 "/>
<path style=" stroke:none;fill-rule:nonzero;fill:url(#linear2);" d="M 2.730469 4.265625 L 19.101562 4.265625 C 19.605469 4.265625 20.011719 4.671875 20.011719 5.175781 L 20.011719 17 C 20.011719 17.5 19.605469 17.910156 19.101562 17.910156 L 2.730469 17.910156 C 2.226562 17.910156 1.820312 17.5 1.820312 17 L 1.820312 5.175781 C 1.820312 4.671875 2.226562 4.265625 2.730469 4.265625 Z M 2.730469 4.265625 "/>
<path style=" stroke:none;fill-rule:nonzero;fill:rgb(100%,100%,100%);fill-opacity:0.588235;" d="M 2.730469 4.265625 C 2.226562 4.265625 1.820312 4.671875 1.820312 5.175781 L 1.820312 5.402344 C 1.820312 4.898438 2.226562 4.492188 2.730469 4.492188 L 19.101562 4.492188 C 19.605469 4.492188 20.011719 4.898438 20.011719 5.402344 L 20.011719 5.175781 C 20.011719 4.671875 19.605469 4.265625 19.101562 4.265625 Z M 2.730469 4.265625 "/>
<path style=" stroke:none;fill-rule:nonzero;fill:rgb(0%,0%,0%);fill-opacity:0.235294;" d="M 1.820312 16.78125 L 1.820312 17 C 1.820312 17.503906 2.226562 17.910156 2.730469 17.910156 L 19.101562 17.910156 C 19.605469 17.910156 20.011719 17.503906 20.011719 17 L 20.011719 16.78125 C 20.011719 17.285156 19.605469 17.6875 19.101562 17.6875 L 2.730469 17.6875 C 2.226562 17.6875 1.820312 17.285156 1.820312 16.78125 Z M 1.820312 16.78125 "/>
<path style="fill:none;stroke-width:3;stroke-linecap:round;stroke-linejoin:round;stroke:rgb(12.941176%,12.941176%,12.941176%);stroke-opacity:1;stroke-miterlimit:4;" d="M 63.539387 -115.736752 L 444.503007 -115.736752 C 456.22916 -115.736752 465.682802 -106.283109 465.682802 -94.556956 L 465.682802 180.598586 C 465.682802 192.233838 456.22916 201.778381 444.503007 201.778381 L 63.539387 201.778381 C 51.813234 201.778381 42.359591 192.233838 42.359591 180.598586 L 42.359591 -94.556956 C 42.359591 -106.283109 51.813234 -115.736752 63.539387 -115.736752 Z M 63.539387 -115.736752 " transform="matrix(0.0429729,0,0,0.0429729,0,9.239163)"/>
<path style=" stroke:none;fill-rule:nonzero;fill:url(#linear3);" d="M 14.667969 7.222656 C 14.039062 7.222656 13.53125 7.726562 13.53125 8.359375 L 13.53125 14.726562 L 15.804688 14.726562 C 16.433594 14.726562 16.941406 14.21875 16.941406 13.589844 L 16.941406 7.222656 Z M 14.667969 7.222656 "/>
<path style=" stroke:none;fill-rule:nonzero;fill:url(#linear4);" d="M 10.347656 7.222656 C 9.714844 7.222656 9.210938 7.726562 9.210938 8.359375 L 9.210938 14.726562 L 11.484375 14.726562 C 12.113281 14.726562 12.621094 14.21875 12.621094 13.589844 L 12.621094 7.222656 Z M 10.347656 7.222656 "/>
<path style=" stroke:none;fill-rule:nonzero;fill:url(#linear5);" d="M 6.027344 7.222656 C 5.394531 7.222656 4.890625 7.726562 4.890625 8.359375 L 4.890625 14.726562 L 7.164062 14.726562 C 7.792969 14.726562 8.300781 14.21875 8.300781 13.589844 L 8.300781 7.222656 Z M 6.027344 7.222656 "/>
<path style="fill:none;stroke-width:3;stroke-linecap:round;stroke-linejoin:round;stroke:rgb(12.941176%,12.941176%,12.941176%);stroke-opacity:1;stroke-miterlimit:4;" d="M 341.331041 -46.925141 C 326.696075 -46.925141 314.879021 -35.198988 314.879021 -20.473122 L 314.879021 127.694547 L 367.78306 127.694547 C 382.418026 127.694547 394.23508 115.877494 394.23508 101.242528 L 394.23508 -46.925141 Z M 341.331041 -46.925141 " transform="matrix(0.0429729,0,0,0.0429729,0,9.239163)"/>
<path style="fill:none;stroke-width:3;stroke-linecap:round;stroke-linejoin:round;stroke:rgb(12.941176%,12.941176%,12.941176%);stroke-opacity:1;stroke-miterlimit:4;" d="M 240.795187 -46.925141 C 226.069321 -46.925141 214.343168 -35.198988 214.343168 -20.473122 L 214.343168 127.694547 L 267.247206 127.694547 C 281.882173 127.694547 293.699226 115.877494 293.699226 101.242528 L 293.699226 -46.925141 Z M 240.795187 -46.925141 " transform="matrix(0.0429729,0,0,0.0429729,0,9.239163)"/>
<path style="fill:none;stroke-width:3;stroke-linecap:round;stroke-linejoin:round;stroke:rgb(12.941176%,12.941176%,12.941176%);stroke-opacity:1;stroke-miterlimit:4;" d="M 140.259333 -46.925141 C 125.533467 -46.925141 113.807314 -35.198988 113.807314 -20.473122 L 113.807314 127.694547 L 166.711353 127.694547 C 181.346319 127.694547 193.163372 115.877494 193.163372 101.242528 L 193.163372 -46.925141 Z M 140.259333 -46.925141 " transform="matrix(0.0429729,0,0,0.0429729,0,9.239163)"/>
</g>
</svg>
